X: 11030
T: ELISSA'S HORNPIPE
C: Bob McQuillen 12 April 2001
B: Bob's Note Book 11 #30
%R: hornpipe, reel
Z: 2020 John Chambers <jc:trillian.mit.edu>
M: C	% The booklet has no time signature.
L: 1/8
K: D
FE \
| D2FA d2fa | gfed cAFA | B2GB gfed | edcB AGFE |
| F2DF A2fd | BGBd g2ag | fAdf gecd | e2d2 d2  :|
|: fg \
| agfd BdAF | GABG E2ef | gagf edBd | cdec A2Bc |
| dAFA Bdgf | edcB Adfa | gfed ceag | f2d2 d2  :|
%%begintext align
%% Elissa Day is Austin's sister, from New
%% Bloomfield, MO, and since she's a fiddle player as well as
%% being one of the cousins, it happens that she found this
%% tune on a music stand not far from the Sugar River
%% in Newport, NH, on 12 April 2001. Pretty amazing stuff,
%% don'tyou think?
%%endtext

%%sep 1 1 500

%%sep 1 1 500

